svgs/solid/bracket-curly-right.svg

<svg xmlns="http://www.w3.org/2000/svg" viewBox="0 0 256 512"><!-- Font Awesome Pro 6.0.0-alpha2 by @fontawesome - https://fontawesome.com License - https://fontawesome.com/license (Commercial License) --><path d="M32 64V64C32 81.673 46.327 96 64 96H96C113.6 96 128 110.4 128 128V165.475C128 190.943 138.117 215.367 156.125 233.375L178.75 256L156.108 278.642C138.111 296.639 128 321.048 128 346.5V384C128 401.6 113.6 416 96 416H64C46.327 416 32 430.327 32 448V448C32 465.673 46.327 480 64 480H96C149.019 480 192 437.019 192 384V346.5C192 338.016 195.37 329.88 201.369 323.881L246.625 278.625C259.12 266.13 259.12 245.87 246.625 233.375L201.369 188.119C195.37 182.12 192 173.984 192 165.5V128C192 74.981 149.019 32 96 32H64C46.327 32 32 46.327 32 64Z"/></svg>

<svg xmlns="http://www.w3.org/2000/svg" viewBox="0 0 256 512"><!--! Font Awesome Pro 6.4.0 by @fontawesome - https://fontawesome.com License - https://fontawesome.com/license (Commercial License) Copyright 2023 Fonticons, Inc. --><path d="M192 128c0-53-43-96-96-96H64C46.3 32 32 46.3 32 64s14.3 32 32 32H96c17.7 0 32 14.3 32 32v37.5c0 25.5 10.1 49.9 28.1 67.9L178.7 256l-22.6 22.6c-18 18-28.1 42.4-28.1 67.9V384c0 17.7-14.3 32-32 32H64c-17.7 0-32 14.3-32 32s14.3 32 32 32H96c53 0 96-43 96-96V346.5c0-8.5 3.4-16.6 9.4-22.6l45.3-45.3c12.5-12.5 12.5-32.8 0-45.3l-45.3-45.3c-6-6-9.4-14.1-9.4-22.6V128z"/></svg>
